X:1
T:Title
%%score { ( 1 3 ) | ( 2 4 ) }
L:1/8
M:2/2
K:Eb
V:1 treble nm="Grand Piano"
V:3 treble 
V:2 bass 
V:4 bass 
V:1
 z4 z2[Q:1/4=100] E2 | G3 G G2 F2 | F2 E2 E2 G2 | [DB]3 [DB] [DB]2 [DA]2 |[M:3/4] [EG]2 [GB]4 | %5
[M:1/4] [GB]2 |[M:4/4] c3 c c2 [Ad]2 | [Ge]3 [Ge] [Ge]2 [Ge]2 | d2 c2 B2 =A2 |[M:3/4] [Ec]2 [DB]4 | %10
[M:1/4] B2 |[M:4/4] B6 z2 | B6 z2 | [EAc]2 [Ad]2 [Be]2 f2 |[M:3/4] e4 d2 |[M:1/4] d2 | %16
[M:4/4] e6 z2 | e6 z2 | [EGB]2 [G,E]2 [B,DG]3 [A,DF] | [A,DF]6 [G,E]2 |] %20
V:2
 z4 z2 [E,G,]2 | [E,B,E]3 [E,B,E] [E,B,E]2 [E,A,B,]2 | [E,A,B,]2 [E,G,B,]2 [E,G,B,]2 [E,B,]2 | %3
 [B,,F,]3 [B,,F,] [B,,F,]2 [B,,B,]2 |[M:3/4] [E,B,]2 [E,B,]4 |[M:1/4] [E,E]2 | %6
[M:4/4][K:treble] [A,EA]3 [A,EA] [A,EA]2[K:bass] [F,B,]2 | [E,B,]3 [E,B,] [E,B,]2 [E,B,]2 | %8
 [F,B,F]2 [F,=A,E]2 [F,B,D]2 [F,C]2 |[M:3/4] [B,,F,]2 [B,,F,]4 |[M:1/4] z E | %11
[M:4/4] D,2 E,2 F,2 B,,2 | E,2 F,2 G,2 E,2 | A,2 [F,B,]2 [G,B,]2[K:treble] [A,CA]2 | %14
[M:3/4] [B,G]4 [B,F]2 |[M:1/4] [B,B]2 |[M:4/4] [G,B,]2[K:bass] [F,B,]2 [E,B,]2 [_D,G,]2 | %17
 [C,A,]2 B,,2 A,,2 A,,2 | B,,2 B,,2 B,,3 B,, | B,,6 E,2 |] %20
V:3
 x8 | x8 | x8 | x8 |[M:3/4] x6 |[M:1/4] x2 |[M:4/4] x8 | x8 | x8 |[M:3/4] x6 |[M:1/4] D z | %11
[M:4/4] [B,F]2 [B,G]2 [B,A]2 [DAB]2 | [EG]2 [DF]2 E2 [EGB]2 | x8 |[M:3/4] x6 |[M:1/4] z A, | %16
[M:4/4] B2 A2 G2 [Be]2 | A2 [B,G]2 [CA]2 [EAc]2 | x8 | x8 |] %20
V:4
 x8 | x8 | x8 | x8 |[M:3/4] x6 |[M:1/4] x2 |[M:4/4][K:treble] x6[K:bass] x2 | x8 | x8 |[M:3/4] x6 | %10
[M:1/4] [B,,F,]2 |[M:4/4] x8 | x8 | x6[K:treble] x2 |[M:3/4] x6 |[M:1/4] x2 | %16
[M:4/4] x2[K:bass] x6 | x8 | x8 | x8 |] %20

